img/payment_2.svg

<svg width="103" height="36" viewBox="0 0 103 36" fill="none" xmlns="http://www.w3.org/2000/svg">
<path d="M22.0432 13.144V14.012H31.8992V13.144H27.5172V11.688H26.4672V13.144H22.0432ZM21.4692 20.48H24.3672V24.064H25.4452V20.48H28.5812V24.064H29.6452V20.48H32.5712V19.598H21.4692V20.48ZM23.0372 16.728C23.0372 18.03 24.5072 18.772 26.9992 18.772C29.4772 18.772 30.9612 18.03 30.9612 16.728C30.9612 15.44 29.4772 14.726 26.9992 14.726C24.5072 14.726 23.0372 15.44 23.0372 16.728ZM24.1432 16.728C24.1432 15.972 25.1932 15.538 26.9992 15.538C28.8192 15.538 29.8552 15.972 29.8552 16.728C29.8552 17.512 28.8192 17.946 26.9992 17.946C25.1932 17.946 24.1432 17.512 24.1432 16.728ZM43.0855 11.758V16.7H41.2935V12.052H40.2995V23.392H41.2935V17.596H43.0855V24.036H44.1075V11.758H43.0855ZM34.1675 20.984H34.9655C36.8135 20.984 38.0455 20.928 39.5155 20.62L39.4035 19.724C38.0595 20.032 36.8835 20.088 35.2175 20.088V14.138H38.7175V13.284H34.1675V20.984ZM46.9638 12.346V13.2H48.8538V16.056H47.0198V16.91H50.9538V18.422H45.9418V19.304H57.0158V18.422H52.0038V16.91H55.9098V16.056H54.0758V13.2H55.9518V12.346H46.9638ZM47.3838 23.756H55.7698V22.874H48.4338V20.396H47.3838V23.756ZM49.9178 16.056V13.2H53.0118V16.056H49.9178ZM67.1802 11.772V13.564H64.3662C64.4362 13.186 64.4782 12.794 64.4782 12.388H59.0182V13.27H63.3162C63.1202 15.244 61.3842 16.742 58.4022 17.442L58.7662 18.31C61.4682 17.666 63.3722 16.35 64.1142 14.404H67.1802V15.916H63.9322V16.742H67.1802V18.03H68.2442V11.772H67.1802ZM60.3762 19.472H67.1942V20.76H60.4182V23.91H68.6642V23.056H61.4542V21.586H68.2442V18.618H60.3762V19.472ZM79.7945 11.758V24.036H80.8305V11.758H79.7945ZM70.2745 20.774L70.9465 21.572C72.1785 20.788 73.0605 19.36 73.4945 17.666C73.9285 19.234 74.7825 20.55 75.9725 21.264L76.6165 20.494C74.9505 19.514 74.0125 17.4 74.0125 15.258V14.096H76.2385V13.228H70.6105V14.096H72.9625V15.258C72.9625 17.526 71.9685 19.752 70.2745 20.774ZM75.2725 17.064H77.3445V23.392H78.3385V12.066H77.3445V16.196H75.2725V17.064Z" fill="#797979"/>
<path d="M6 1H97V-1H6V1ZM102 6V30H104V6H102ZM97 35H6V37H97V35ZM1 30V6H-1V30H1ZM6 35C3.23858 35 1 32.7614 1 30H-1C-1 33.866 2.13401 37 6 37V35ZM102 30C102 32.7614 99.7614 35 97 35V37C100.866 37 104 33.866 104 30H102ZM97 1C99.7614 1 102 3.23858 102 6H104C104 2.13401 100.866 -1 97 -1V1ZM6 -1C2.13401 -1 -1 2.13401 -1 6H1C1 3.23858 3.23858 1 6 1V-1Z" fill="#E2E2E2"/>
</svg>

<?xml version="1.0" encoding="utf-8"?>
<!-- Generator: Adobe Illustrator 26.3.1, SVG Export Plug-In . SVG Version: 6.00 Build 0)  -->
<svg version="1.1" id="레이어_1" xmlns="http://www.w3.org/2000/svg" xmlns:xlink="http://www.w3.org/1999/xlink" x="0px"
	 y="0px" viewBox="0 0 103 36" style="enable-background:new 0 0 103 36;" xml:space="preserve">
<style type="text/css">
	.st0{fill:#797979;}
</style>
<path class="st0" d="M22.04,13.14v0.87h9.86v-0.87h-4.38v-1.46h-1.05v1.46H22.04z M21.47,20.48h2.9v3.58h1.08v-3.58h3.14v3.58h1.06
	v-3.58h2.93V19.6h-11.1V20.48z M23.04,16.73c0,1.3,1.47,2.04,3.96,2.04c2.48,0,3.96-0.74,3.96-2.04c0-1.29-1.48-2-3.96-2
	C24.51,14.73,23.04,15.44,23.04,16.73z M24.14,16.73c0-0.76,1.05-1.19,2.86-1.19c1.82,0,2.86,0.43,2.86,1.19
	c0,0.78-1.04,1.22-2.86,1.22C25.19,17.95,24.14,17.51,24.14,16.73z M43.09,11.76v4.94h-1.79v-4.65H40.3v11.34h0.99v-5.8h1.79v6.44
	h1.02V11.76H43.09z M34.17,20.98h0.8c1.85,0,3.08-0.06,4.55-0.36l-0.11-0.9c-1.34,0.31-2.52,0.36-4.19,0.36v-5.95h3.5v-0.85h-4.55
	V20.98z M46.96,12.35v0.85h1.89v2.86h-1.83v0.85h3.93v1.51h-5.01v0.88h11.07v-0.88H52v-1.51h3.91v-0.85h-1.83V13.2h1.88v-0.85H46.96
	z M47.38,23.76h8.39v-0.88h-7.34V20.4h-1.05V23.76z M49.92,16.06V13.2h3.09v2.86H49.92z M67.18,11.77v1.79h-2.81
	c0.07-0.38,0.11-0.77,0.11-1.18h-5.46v0.88h4.3c-0.2,1.97-1.93,3.47-4.91,4.17l0.36,0.87c2.7-0.64,4.61-1.96,5.35-3.91h3.07v1.51
	h-3.25v0.83h3.25v1.29h1.06v-6.26H67.18z M60.38,19.47h6.82v1.29h-6.78v3.15h8.25v-0.85h-7.21v-1.47h6.79v-2.97h-7.87V19.47z
	 M79.79,11.76v12.28h1.04V11.76H79.79z M70.27,20.77l0.67,0.8c1.23-0.78,2.11-2.21,2.55-3.91c0.43,1.57,1.29,2.88,2.48,3.6
	l0.64-0.77c-1.67-0.98-2.6-3.09-2.6-5.24V14.1h2.23v-0.87h-5.63v0.87h2.35v1.16C72.96,17.53,71.97,19.75,70.27,20.77z M75.27,17.06
	h2.07v6.33h0.99V12.07h-0.99v4.13h-2.07V17.06z"/>
</svg>
